src/assets/icon_check.svg

<svg width="24" height="24" viewBox="0 0 24 24" fill="none" xmlns="http://www.w3.org/2000/svg">
<rect width="24" height="24" rx="12" fill="white"/>
<path d="M18.3414 6.01855L18.6662 6.07885L18.8493 6.42857L18.8717 6.47124C18.9886 6.69447 19.0022 6.91786 18.9998 7.03988C18.9972 7.16481 18.9765 7.26405 18.9629 7.32002C18.9356 7.43202 18.898 7.52253 18.876 7.57234C18.828 7.68122 18.7653 7.79551 18.7039 7.90072L18.536 8.18921L18.3674 8.47678C18.1743 8.80756 17.9231 9.05435 17.6324 9.21888L17.3604 9.3738L17.0876 9.52778C16.9312 9.6163 16.7833 9.71309 16.6442 9.81813L16.15 10.192C16.0524 10.2656 15.972 10.3521 15.9048 10.4517L15.5402 10.9916C15.3928 11.2099 15.2324 11.4117 15.0598 11.5973L14.8463 11.8274L14.6322 12.0565C14.6375 12.0508 14.639 12.0468 14.6365 12.0528C14.6331 12.0611 14.623 12.0897 14.6148 12.1502L14.557 12.5797L14.4984 13.0092C14.4404 13.4374 14.3062 13.8504 14.0599 14.1863L13.6794 14.7058C13.4341 15.0405 13.1233 15.2387 12.7924 15.3348L12.2209 15.4999L12.1478 15.7531L12.0415 16.1195C11.9868 16.3071 11.8649 16.6463 11.5864 16.8505C11.2359 17.1075 10.8854 16.9886 10.6705 16.8264L10.4766 16.6798L10.2835 16.5342C10.1352 16.4223 9.97717 16.2912 9.81104 16.1437L9.5788 15.9377L9.34657 15.7309C9.20418 15.6044 9.05778 15.4826 8.90743 15.3654L8.41909 14.9841C8.07658 14.717 7.86133 14.3089 7.76002 13.8431L7.67465 13.4498L7.58856 13.0556C7.57838 13.0089 7.56831 12.9861 7.56396 12.9776C7.56036 12.9707 7.55813 12.9671 7.55455 12.9637L7.09877 12.5407C7.00295 12.4517 6.8898 12.3722 6.75585 12.306L6.18865 12.0259C5.75205 11.8104 5.46131 11.318 5.26117 10.8552L5 10.2504L5.41382 9.95542L6.1192 9.05098L6.24508 9.21239L6.55762 9.93409C6.62481 10.0894 6.67956 10.1829 6.71678 10.2337C6.72776 10.2487 6.73647 10.2571 6.74138 10.2625L7.00472 10.3933L7.28832 10.5333C7.53255 10.6539 7.76055 10.8095 7.96837 11.0027L8.42416 11.4257C8.72936 11.7095 8.92022 12.1052 9.01595 12.5454L9.10204 12.9396L9.18741 13.3329C9.19093 13.3491 9.19459 13.3598 9.19682 13.3663L9.43339 13.5518L9.6772 13.742C9.85243 13.8787 10.0239 14.0214 10.1909 14.1697L10.4231 14.3756L10.6546 14.5815C10.7263 14.6452 10.7939 14.7035 10.8572 14.7559L10.8673 14.7216L10.9382 14.5175C11.1237 14.0653 11.4437 13.7784 11.8244 13.6678L12.1449 13.5741L12.4654 13.4813C12.5615 13.4534 12.5915 13.4159 12.6 13.4044L12.7903 13.1455L12.9805 12.8858C12.9881 12.8755 13.0189 12.8287 13.0384 12.6845L13.097 12.255L13.1549 11.8255C13.2167 11.3686 13.3768 10.928 13.6808 10.6011L13.8943 10.3719L14.1077 10.1419C14.2199 10.0212 14.3239 9.89018 14.4195 9.74856L14.6018 9.47769L14.7841 9.20775C14.9599 8.94736 15.1663 8.72988 15.3984 8.5547L15.8925 8.18086C16.083 8.03701 16.2823 7.90656 16.4893 7.7894L16.752 7.64005L16.5696 7.60666L17.6657 6.2013L18.1504 6.82374L18.2437 6L18.3414 6.01855Z" fill="#31A552"/>
</svg>

<svg xmlns="http://www.w3.org/2000/svg" width="24" height="24" fill="none" viewBox="0 0 24 24"><rect width="24" height="24" fill="#fff" rx="12"/><path fill="#31a552" d="m18.341 6.019.325.06.183.35.023.042c.117.223.13.447.128.569a1.3 1.3 0 0 1-.037.28 1.5 1.5 0 0 1-.087.252c-.048.11-.11.224-.172.329l-.168.288-.169.288c-.193.33-.444.577-.735.742l-.272.155-.272.154a4 4 0 0 0-.444.29l-.494.374q-.146.11-.245.26l-.365.54a5 5 0 0 1-.48.605l-.214.23-.214.23c.005-.006.007-.01.005-.004a.4.4 0 0 0-.022.097l-.058.43-.059.43c-.058.427-.192.84-.438 1.176l-.38.52a1.66 1.66 0 0 1-.888.629l-.571.165-.073.253-.107.366c-.054.188-.176.527-.455.732-.35.257-.7.138-.915-.025l-.194-.146-.194-.146a8 8 0 0 1-.472-.39l-.232-.206-.232-.207a9 9 0 0 0-.44-.366l-.488-.38c-.342-.268-.558-.676-.659-1.142l-.085-.393-.086-.394a.3.3 0 0 0-.025-.078l-.01-.014-.455-.423a1.4 1.4 0 0 0-.343-.235l-.567-.28c-.437-.216-.728-.708-.928-1.17L5 10.25l.414-.295.705-.904.126.161.313.722c.067.155.122.249.159.3q.016.022.024.028l.264.131.283.14q.369.18.68.47l.456.423c.305.284.496.68.592 1.12l.086.394.085.393.01.033.236.186.244.19q.263.206.514.428l.232.206.232.206q.107.095.202.174l.01-.034.071-.204c.186-.453.506-.74.886-.85l.32-.094.321-.093c.097-.028.127-.065.135-.077l.19-.258.19-.26c.008-.01.039-.057.058-.201l.059-.43.058-.43c.062-.456.222-.897.526-1.224l.213-.23.214-.23q.168-.18.311-.392l.183-.271.182-.27q.265-.39.614-.653l.495-.374q.286-.215.596-.392l.263-.149-.182-.033L17.666 6.2l.484.623.094-.824z"/></svg>
